x-pack/solutions/observability/plugins/apm/public/components/shared/span_icon/icons/aws.svg

<svg width="16" height="16" viewBox="0 0 16 16" fill="none" xmlns="http://www.w3.org/2000/svg">
<path d="M4.50943 6.93932C4.50943 7.13389 4.53072 7.29165 4.56797 7.40734C4.61053 7.52304 4.66374 7.64925 4.73824 7.78597C4.76484 7.82804 4.77548 7.87011 4.77548 7.90692C4.77548 7.95951 4.74356 8.0121 4.67439 8.06469L4.33916 8.28555C4.29127 8.3171 4.24339 8.33288 4.20082 8.33288C4.14761 8.33288 4.0944 8.30659 4.04119 8.25926C3.96669 8.18038 3.90284 8.09624 3.84963 8.0121C3.79642 7.9227 3.74321 7.82278 3.68468 7.70183C3.26964 8.18564 2.74818 8.42754 2.12031 8.42754C1.67334 8.42754 1.31684 8.30133 1.05611 8.04891C0.795378 7.79649 0.662354 7.45993 0.662354 7.03923C0.662354 6.59224 0.821983 6.22939 1.14656 5.95594C1.47115 5.68248 1.90215 5.54576 2.45021 5.54576C2.63112 5.54576 2.81736 5.56153 3.01423 5.58783C3.21111 5.61412 3.41331 5.65619 3.62615 5.70352V5.31963C3.62615 4.91997 3.54101 4.64126 3.37606 4.47824C3.20579 4.31521 2.91846 4.23633 2.50874 4.23633C2.3225 4.23633 2.13095 4.25737 1.93407 4.3047C1.7372 4.35203 1.54564 4.40987 1.3594 4.48349C1.27427 4.5203 1.21042 4.54134 1.17317 4.55186C1.13592 4.56237 1.10932 4.56763 1.08803 4.56763C1.01354 4.56763 0.976292 4.51505 0.976292 4.40461V4.14694C0.976292 4.0628 0.986934 3.99969 1.01354 3.96288C1.04014 3.92607 1.08803 3.88926 1.16253 3.85245C1.34876 3.75779 1.57224 3.67891 1.83297 3.6158C2.0937 3.54744 2.37039 3.51589 2.66305 3.51589C3.29625 3.51589 3.75917 3.65787 4.05715 3.94185C4.34981 4.22582 4.49879 4.65703 4.49879 5.23549V6.93932H4.50943ZM2.34911 7.73864C2.5247 7.73864 2.70562 7.70709 2.89717 7.64399C3.08873 7.58088 3.259 7.46519 3.40267 7.30743C3.4878 7.20751 3.55166 7.09708 3.58358 6.97087C3.61551 6.84466 3.63679 6.69216 3.63679 6.51336V6.2925C3.48248 6.25568 3.31753 6.22413 3.14726 6.2031C2.97699 6.18206 2.81204 6.17154 2.64709 6.17154C2.29058 6.17154 2.02985 6.23991 1.85426 6.38189C1.67866 6.52388 1.59353 6.72371 1.59353 6.98665C1.59353 7.23381 1.65738 7.41786 1.7904 7.54407C1.91811 7.67554 2.10434 7.73864 2.34911 7.73864ZM6.62187 8.30659C6.52609 8.30659 6.46224 8.29081 6.41967 8.254C6.37711 8.22245 6.33986 8.14882 6.30793 8.04891L5.0575 3.98392C5.02557 3.87874 5.00961 3.81038 5.00961 3.77357C5.00961 3.68943 5.05218 3.6421 5.13731 3.6421H5.65877C5.75987 3.6421 5.82904 3.65787 5.86629 3.69469C5.90886 3.72624 5.94078 3.79986 5.97271 3.89978L6.86664 7.38105L7.69671 3.89978C7.72332 3.7946 7.75524 3.72624 7.79781 3.69469C7.84038 3.66313 7.91487 3.6421 8.01065 3.6421H8.43633C8.53743 3.6421 8.6066 3.65787 8.64917 3.69469C8.69174 3.72624 8.72899 3.79986 8.75027 3.89978L9.59099 7.42312L10.5115 3.89978C10.5434 3.7946 10.5807 3.72624 10.6179 3.69469C10.6605 3.66313 10.7297 3.6421 10.8255 3.6421H11.3203C11.4054 3.6421 11.4533 3.68417 11.4533 3.77357C11.4533 3.79986 11.448 3.82615 11.4427 3.85771C11.4374 3.88926 11.4267 3.93133 11.4054 3.98917L10.1231 8.05417C10.0912 8.15934 10.0539 8.22771 10.0113 8.25926C9.96878 8.29081 9.89961 8.31185 9.80915 8.31185H9.35154C9.25044 8.31185 9.18127 8.29607 9.1387 8.25926C9.09613 8.22245 9.05889 8.15408 9.0376 8.04891L8.21285 4.65703L7.39342 8.04365C7.36681 8.14883 7.33488 8.21719 7.29232 8.254C7.24975 8.29081 7.17525 8.30659 7.07948 8.30659H6.62187ZM13.4594 8.44857C13.1827 8.44857 12.906 8.41702 12.6399 8.35392C12.3739 8.29081 12.1664 8.22245 12.028 8.14357C11.9429 8.09624 11.8843 8.04365 11.8631 7.99632C11.8418 7.94899 11.8311 7.89641 11.8311 7.84908V7.58088C11.8311 7.47045 11.8737 7.41786 11.9535 7.41786C11.9854 7.41786 12.0174 7.42312 12.0493 7.43364C12.0812 7.44416 12.1291 7.46519 12.1823 7.48623C12.3632 7.56511 12.5601 7.62821 12.7676 7.67028C12.9805 7.71235 13.188 7.73339 13.4008 7.73339C13.736 7.73339 13.9968 7.67554 14.1777 7.55985C14.3586 7.44416 14.4544 7.27588 14.4544 7.06027C14.4544 6.91302 14.4065 6.79207 14.3107 6.69216C14.2149 6.59224 14.034 6.50284 13.7733 6.4187L13.0017 6.18206C12.6133 6.06111 12.326 5.88231 12.1504 5.64567C11.9748 5.41429 11.8843 5.15661 11.8843 4.88316C11.8843 4.66229 11.9322 4.46772 12.028 4.29944C12.1238 4.13116 12.2515 3.98392 12.4111 3.86822C12.5707 3.74727 12.7517 3.65787 12.9645 3.59477C13.1773 3.53166 13.4008 3.50537 13.6349 3.50537C13.752 3.50537 13.8744 3.51063 13.9915 3.52641C14.1138 3.54218 14.2256 3.56322 14.3373 3.58425C14.4437 3.61055 14.5448 3.63684 14.6406 3.66839C14.7364 3.69994 14.8109 3.7315 14.8641 3.76305C14.9386 3.80512 14.9918 3.84719 15.0237 3.89452C15.0557 3.93659 15.0716 3.99443 15.0716 4.06805V4.31521C15.0716 4.42565 15.029 4.48349 14.9492 4.48349C14.9067 4.48349 14.8375 4.46246 14.747 4.42039C14.4437 4.28366 14.1032 4.2153 13.7254 4.2153C13.4221 4.2153 13.1827 4.26263 13.0177 4.36254C12.8528 4.46246 12.7676 4.61496 12.7676 4.83057C12.7676 4.97781 12.8208 5.10402 12.9273 5.20394C13.0337 5.30385 13.2306 5.40377 13.5126 5.49317L14.2681 5.72981C14.6513 5.85076 14.9279 6.01904 15.0929 6.23465C15.2579 6.45026 15.3377 6.69742 15.3377 6.97087C15.3377 7.197 15.2898 7.40209 15.1993 7.58088C15.1035 7.75968 14.9758 7.91744 14.8109 8.04365C14.6459 8.17512 14.4491 8.26978 14.2203 8.33814C13.9808 8.41176 13.7307 8.44857 13.4594 8.44857Z" fill="#252F3E"/>
<path fill-rule="evenodd" clip-rule="evenodd" d="M14.465 11.0045C12.7144 12.2824 10.171 12.9608 7.98406 12.9608C4.91916 12.9608 2.15756 11.8407 0.0717311 9.97907C-0.0932198 9.83183 0.0557681 9.632 0.252645 9.74769C2.50875 11.0413 5.29163 11.8249 8.17029 11.8249C10.1125 11.8249 12.2462 11.4252 14.2096 10.6049C14.5023 10.4734 14.7524 10.7942 14.465 11.0045Z" fill="#FF9900"/>
<path fill-rule="evenodd" clip-rule="evenodd" d="M15.1941 10.1841C14.9706 9.90013 13.7148 10.0474 13.1455 10.1157C12.9752 10.1368 12.9486 9.98953 13.1029 9.8791C14.1033 9.18495 15.7474 9.38478 15.939 9.61616C16.1306 9.8528 15.8858 11.4777 14.9493 12.256C14.8056 12.377 14.6673 12.3139 14.7311 12.1561C14.944 11.6355 15.4175 10.4628 15.1941 10.1841Z" fill="#FF9900"/>
</svg>

<svg xmlns="http://www.w3.org/2000/svg" width="16" height="16" fill="none"><path fill="#252F3E" d="M4.51 6.94q0 .293.058.467c.043.116.096.242.17.379a.23.23 0 0 1 .037.12q.002.08-.1.159l-.336.22a.26.26 0 0 1-.138.048q-.08-.001-.16-.074a1.6 1.6 0 0 1-.191-.247 4 4 0 0 1-.165-.31q-.623.726-1.565.726-.671 0-1.064-.38C.796 7.797.662 7.46.662 7.04q-.001-.672.485-1.083c.324-.274.755-.41 1.303-.41q.27.002.564.042c.197.026.4.068.612.116V5.32q-.001-.599-.25-.842-.254-.243-.867-.242-.28-.001-.575.069a4 4 0 0 0-.575.178 2 2 0 0 1-.186.069.3.3 0 0 1-.085.016q-.112.001-.112-.163v-.258c0-.084.01-.147.038-.184a.4.4 0 0 1 .149-.11q.28-.143.67-.237.39-.102.83-.1.948 0 1.394.426.44.426.442 1.293V6.94zm-2.16.799q.261 0 .547-.095c.192-.063.362-.179.506-.337.085-.1.149-.21.18-.336.033-.126.054-.279.054-.458v-.22a5 5 0 0 0-.49-.09 4 4 0 0 0-.5-.031c-.356 0-.617.068-.793.21q-.261.212-.26.605-.002.368.196.557.192.197.56.195m4.272.568c-.096 0-.16-.016-.202-.053-.043-.032-.08-.105-.112-.205l-1.25-4.065a1 1 0 0 1-.048-.21c0-.085.042-.132.127-.132h.522q.15-.001.207.053c.043.031.075.105.107.205l.894 3.481.83-3.481q.038-.158.1-.205a.37.37 0 0 1 .214-.053h.425q.15-.001.213.053c.043.031.08.105.101.205l.841 3.523.92-3.523a.45.45 0 0 1 .107-.205.35.35 0 0 1 .207-.053h.495c.085 0 .133.042.133.132q-.001.038-.01.084a1 1 0 0 1-.038.131l-1.282 4.065q-.049.158-.112.205a.34.34 0 0 1-.202.053h-.457c-.102 0-.17-.016-.213-.053s-.08-.105-.101-.21l-.825-3.392-.82 3.387q-.038.156-.1.21c-.043.037-.118.053-.214.053zm6.837.142c-.276 0-.553-.032-.82-.095-.265-.063-.473-.132-.611-.21-.085-.048-.144-.1-.165-.148a.4.4 0 0 1-.032-.147v-.268q.002-.164.123-.163.047 0 .095.016c.032.01.08.031.133.052q.273.12.586.184c.212.042.42.063.633.063q.504 0 .777-.173a.56.56 0 0 0 .276-.5.5.5 0 0 0-.143-.368q-.145-.15-.538-.273l-.771-.237c-.389-.12-.676-.3-.852-.536a1.24 1.24 0 0 1-.122-1.347c.096-.168.223-.315.383-.43.16-.122.34-.211.553-.274s.437-.09.67-.09c.118 0 .24.006.357.021.123.016.235.037.346.058q.16.039.304.084.143.047.223.095a.46.46 0 0 1 .16.132.28.28 0 0 1 .048.173v.247q-.002.167-.123.168a.6.6 0 0 1-.202-.063 2.5 2.5 0 0 0-1.022-.205c-.303 0-.542.048-.707.148a.51.51 0 0 0-.25.468q0 .222.16.373c.106.1.303.2.585.29l.755.236q.576.18.825.505.246.324.245.736-.001.34-.139.61a1.4 1.4 0 0 1-.388.463 1.7 1.7 0 0 1-.59.294c-.24.074-.49.11-.762.11"/><path fill="#F90" fill-rule="evenodd" d="M14.465 11.005c-1.75 1.277-4.294 1.956-6.48 1.956-3.066 0-5.827-1.12-7.913-2.982-.165-.147-.016-.347.18-.231 2.257 1.293 5.04 2.077 7.918 2.077 1.943 0 4.076-.4 6.04-1.22.292-.132.542.19.255.4" clip-rule="evenodd"/><path fill="#F90" fill-rule="evenodd" d="M15.194 10.184c-.223-.284-1.48-.137-2.049-.068-.17.02-.196-.126-.042-.237 1-.694 2.644-.494 2.836-.263.192.237-.053 1.862-.99 2.64-.143.121-.282.058-.218-.1.213-.52.687-1.693.463-1.972" clip-rule="evenodd"/></svg>
